build/img/clock.svg

<svg width="12" height="11" viewBox="0 0 12 11" fill="none" xmlns="http://www.w3.org/2000/svg">
<path d="M5.63167 0.916626C3.10626 0.916626 1.04834 2.97454 1.04834 5.49996C1.04834 8.02538 3.10626 10.0833 5.63167 10.0833C8.15709 10.0833 10.215 8.02538 10.215 5.49996C10.215 2.97454 8.15709 0.916626 5.63167 0.916626ZM7.62542 7.13621C7.56126 7.24621 7.44667 7.30579 7.32751 7.30579C7.26792 7.30579 7.20834 7.29204 7.15334 7.25538L5.73251 6.40746C5.37959 6.19663 5.11834 5.73371 5.11834 5.32579V3.44663C5.11834 3.25871 5.27417 3.10288 5.46209 3.10288C5.65001 3.10288 5.80584 3.25871 5.80584 3.44663V5.32579C5.80584 5.49079 5.94334 5.73371 6.08542 5.81621L7.50626 6.66413C7.67126 6.76038 7.72626 6.97121 7.62542 7.13621Z" fill="#F24C41"/>
</svg>

<svg width="12" height="11" fill="none" xmlns="http://www.w3.org/2000/svg"><path d="M5.632.917A4.59 4.59 0 001.048 5.5a4.59 4.59 0 004.584 4.583A4.59 4.59 0 0010.215 5.5 4.59 4.59 0 005.632.917zm1.993 6.22a.342.342 0 01-.472.118l-1.42-.848a1.352 1.352 0 01-.615-1.081v-1.88c0-.187.156-.343.344-.343.188 0 .344.156.344.344v1.879c0 .165.137.408.28.49l1.42.848a.34.34 0 01.12.472z" fill="#F24C41"/></svg>
